svgs/1F604.svg

<svg xmlns="http://www.w3.org/2000/svg" xmlns:xlink="http://www.w3.org/1999/xlink" preserveAspectRatio="none" viewBox="0 0 72 72"><defs><path id="a" fill="#FCC21B" d="M35.85 4.85q-22.3 0-31.05 20.65Q0 36.75 0 51.95q0 5.85 10.5 9.95 10.5 4.15 25.35 4.15 14.9 0 25.4-4.15 10.5-4.1 10.5-9.95 0-15.2-4.8-26.45Q58.2 4.85 35.85 4.85z"/><path id="b" fill="#ED6C30" d="M54.95 43.95q.95-3.3-.7-4.4-1.1-.75-2.85-.6-.2.05-3 .6Q42.7 40.7 36 40.7q-6.75 0-12.4-1.15-2.8-.55-3-.6-1.75-.15-2.9.6-1.6 1.1-.65 4.4.95 3.3 3.55 6.05 2.4 2.45 5.4 4 4.55 2.4 10 2.4T46 54q3-1.55 5.35-4 2.65-2.75 3.6-6.05z"/><path id="c" fill="#2F2F2F" d="M51.3 48.95q-4.7-3.7-10.8-3.7-6.1 0-10.75 3.7-2.35 1.85-3.6 3.9-.55 1-.3 2.05.3 1.1 1.25 1.65.95.6 2.05.3 1.1-.25 1.65-1.2.85-1.35 2.45-2.55 3.15-2.4 7.25-2.4t7.25 2.4q1.6 1.2 2.45 2.55.75 1.3 2.3 1.3.85 0 1.4-.35 1-.55 1.25-1.65.3-1.1-.25-2.1-1.25-2.05-3.6-3.9z"/><path id="d" fill="#2F2F2F" d="M98.25 48.95q-4.65-3.7-10.8-3.7-6.1 0-10.75 3.7-3.5 3.75-3.6 3.9-.6.95-.3 2.05.25 1.1 1.25 1.65.95.6 2.05.3 1.1-.25 1.65-1.25.05 0 2.35-2.45 3.15-2.45 7.35-2.45 4.15 0 7.25 2.4 1.6 1.2 2.4 2.5.9 1.35 2.4 1.35.75 0 1.35-.4 1-.55 1.25-1.65.3-1.1-.3-2.05-1.2-2.05-3.55-3.9z"/></defs><use xlink:href="#a"/><use transform="translate(0 -2)" xlink:href="#b"/><use transform="matrix(.56247 0 0 .56247 .05 -.6)" xlink:href="#c"/><use transform="matrix(.56247 0 0 .56247 .05 -.6)" xlink:href="#d"/></svg>

<svg xmlns="http://www.w3.org/2000/svg" version="1.1" xmlns:xlink="http://www.w3.org/1999/xlink" preserveAspectRatio="none" x="0px" y="0px" width="72px" height="72px" viewBox="0 0 72 72">
<defs>
<g id="Layer0_0_FILL">
<path fill="#FCC21B" stroke="none" d="
M 35.85 4.85
Q 13.55 4.85 4.8 25.5 0 36.75 0 51.95 0 57.8 10.5 61.9 21 66.05 35.85 66.05 50.75 66.05 61.25 61.9 71.75 57.8 71.75 51.95 71.75 36.75 66.95 25.5 58.2 4.85 35.85 4.85 Z"/>
</g>

<g id="Layer0_1_FILL">
<path fill="#ED6C30" stroke="none" d="
M 54.95 43.95
Q 55.9 40.65 54.25 39.55 53.15 38.8 51.4 38.95 51.2 39 48.4 39.55 42.7 40.7 36 40.7 29.25 40.7 23.6 39.55 20.8 39 20.6 38.95 18.85 38.8 17.7 39.55 16.1 40.65 17.05 43.95 18 47.25 20.6 50 23 52.45 26 54 30.55 56.4 36 56.4 41.45 56.4 46 54 49 52.45 51.35 50 54 47.25 54.95 43.95 Z"/>
</g>

<g id="Layer0_2_MEMBER_0_FILL">
<path fill="#2F2F2F" stroke="none" d="
M 51.3 48.95
Q 46.6 45.25 40.5 45.25 34.4 45.25 29.75 48.95 27.4 50.8 26.15 52.85 25.6 53.85 25.85 54.9 26.15 56 27.1 56.55 28.05 57.15 29.15 56.85 30.25 56.6 30.8 55.65 31.65 54.3 33.25 53.1 36.4 50.7 40.5 50.7 44.6 50.7 47.75 53.1 49.35 54.3 50.2 55.65 50.95 56.95 52.5 56.95 53.35 56.95 53.9 56.6 54.9 56.05 55.15 54.95 55.45 53.85 54.9 52.85 53.65 50.8 51.3 48.95 Z"/>
</g>

<g id="Layer0_2_MEMBER_1_FILL">
<path fill="#2F2F2F" stroke="none" d="
M 98.25 48.95
Q 93.6 45.25 87.45 45.25 81.35 45.25 76.7 48.95 73.2 52.7 73.1 52.85 72.5 53.8 72.8 54.9 73.05 56 74.05 56.55 75 57.15 76.1 56.85 77.2 56.6 77.75 55.6 77.8 55.6 80.1 53.15 83.25 50.7 87.45 50.7 91.6 50.7 94.7 53.1 96.3 54.3 97.1 55.6 98 56.95 99.5 56.95 100.25 56.95 100.85 56.55 101.85 56 102.1 54.9 102.4 53.8 101.8 52.85 100.6 50.8 98.25 48.95 Z"/>
</g>
</defs>

<g id="Layer_1">
<g transform="matrix( 1, 0, 0, 1, 0,0) ">
<use xlink:href="#Layer0_0_FILL"/>
</g>

<g transform="matrix( 1, 0, 0, 1, 0,-2) ">
<use xlink:href="#Layer0_1_FILL"/>
</g>

<g transform="matrix( 0.562469482421875, 0, 0, 0.562469482421875, 0.05,-0.6) ">
<use xlink:href="#Layer0_2_MEMBER_0_FILL"/>
</g>

<g transform="matrix( 0.562469482421875, 0, 0, 0.562469482421875, 0.05,-0.6) ">
<use xlink:href="#Layer0_2_MEMBER_1_FILL"/>
</g>
</g>
</svg>
